alpha-p-box-outline.svg

<svg fill="currentColor" viewBox="0 0 24 24"><path d="M9 7h4a2 2 0 0 1 2 2v2a2 2 0 0 1-2 2h-2v4H9zm2 2v2h2V9zM5 3h14a2 2 0 0 1 2 2v14a2 2 0 0 1-2 2H5a2 2 0 0 1-2-2V5a2 2 0 0 1 2-2m0 2v14h14V5z"/></svg>

<svg  viewBox="0 0 24 24" fill="currentColor"><path  d="M9,7H13A2,2 0 0,1 15,9V11A2,2 0 0,1 13,13H11V17H9V7M11,9V11H13V9H11M5,3H19A2,2 0 0,1 21,5V19A2,2 0 0,1 19,21H5A2,2 0 0,1 3,19V5A2,2 0 0,1 5,3M5,5V19H19V5H5Z"/></svg>
